X: 1
T: Kilfenora
M: 4/4
L: 1/8
R: reel
K: Dmaj
D3 F A2 ag | fgeg fB B2 | BAFB ABde |1 fdef dBAF :|2 fdef dBAB ||
d2 fd Adfd | d2 fd BdAB | d2 fd Adef | gfed B2 AB | 
d2 fd Adfd | d2 fd B2 AB | d2 c2 B2 AF | ABde fd d2 |
